!!!OTL: 647. Der gute Reiche. / Erste Melodie.
!!!COM: Adam Wilh. Erk
!!!ODT: 1801 (um)
!!!ARE: Europa, Mitteleuropa, Deutschland, Rheinland; Wetzlar
!!!SCT: B0647
!!!TXL: @@DE
!!!YEM: Copyright 1995, estate of Helmut Schaffrath.
**kern	**text
*ICvox	*
*Ivox	*
*clefG2	*
*M6/8	*
*k[b-]	*
*F:	*
!LO:TX:a:t=Mäßig und ſanft.	!
{8c	An
=1	=1
4a	ei-
8a	-nem
8aL	Fluß,
8gJ	.
8f	der
=2	=2
4cc	rauſchend
8b-	.
4b-}	ſchoß,
{8a	ein
=3	=3
4g	ar-
8g	-mes
4cc	Mägd-
8g	-lein
=4	=4
4.a	ſaß.
4r}	.
{8f	Aus
=5	=5
4dd	ih-
8dd	-ren
8ffL	blauen
8eeJ	.
8dd	.
=6	=6
8ddL	Aeuglein
8ccJ	.
8cc	.
(8ccL	floß
8b-J)}	.
{8a	manch
=7	=7
8gL	Thränchen
8ddJ	.
8cc	.
4cc	in
8e	das
=8	=8
4.f	Gras.
4r}	.
==	==
!!!AGN: Moral - Lied, Ballade
!!!GTL: Kinderlieder
!!!ONB: ESAC (Essen Associative Code) Database: BOEHME
!!!AMT: compound duple
!!!AIN: vox
!!!EED: Helmut Schaffrath
!!!EEV: 1.0
!!Adam Wilh. Erk um 1801. Wurde noch 1894 am Rhein und im Kreis Wetzlar gehoert.
!!@@COMMENT:"Gedicht von dem ev. Pfarrer Kaspar Friedr. Loſſius in Erfurt 1181. Ʒuerſt gedruckt in
!!Unterhaltungen für Kinder und Kinderfreunde". 4. Bändchen, S. 56. Leipʒig 1781. - Das
!!Lied iſt durch ganʒ Deutſchland verbreitet und wird jetʒt noch von der Jugend nach verſchiedenen
!!Melodien gern geſungen; auch die weibliche Jugend in Spinnſtuben ſang es ſonſt. - Eine hol-
!!ländiſche Ueberſetʒung beginnt: Aen d'oever van een snellen vliet eeu jougdig meisken zat."
!!@@END:
!!!Text: K. F. Lossius
!!!URL-scan: https://archive.org/details/BoehmeVtLieder1895/page/n503/mode/2up
!!!ENC: Anna Maria Matuszewska
!!!EEV: 2024/16/07
*-	*-
